assets/membership-member-icon-logged-in.svg

<svg fill="none" height="36" viewBox="0 0 34 36" width="34" xmlns="http://www.w3.org/2000/svg"><path clip-rule="evenodd" d="m16.0001 13.3333c3.6819 0 6.6666-2.9847 6.6666-6.66663 0-3.6819-2.9847-6.66667-6.6666-6.66667s-6.6667 2.98477-6.6667 6.66667c0 3.68193 2.9848 6.66663 6.6667 6.66663zm17.3332 19.3334c0 1.1415-.1147 2.2563-.3334 3.3333h-32.666507c-.218626-1.077-.333393-2.1918-.333393-3.3333 0-9.2048 7.46192-16.6667 16.6667-16.6667 9.2047 0 16.6666 7.4619 16.6666 16.6667z" fill="#204f74" fill-rule="evenodd"/></svg>

<svg width="34" height="36" viewBox="0 0 34 36" fill="none" xmlns="http://www.w3.org/2000/svg">
<path fill-rule="evenodd" clip-rule="evenodd" d="M16.0001 13.3333C19.682 13.3333 22.6667 10.3486 22.6667 6.66667C22.6667 2.98477 19.682 0 16.0001 0C12.3182 0 9.3334 2.98477 9.3334 6.66667C9.3334 10.3486 12.3182 13.3333 16.0001 13.3333ZM33.3333 32.6667C33.3333 33.8082 33.2186 34.923 32.9999 36H0.333393C0.114767 34.923 0 33.8082 0 32.6667C0 23.4619 7.46192 16 16.6667 16C25.8714 16 33.3333 23.4619 33.3333 32.6667Z" fill="#204F74"/>
</svg>
